images/index/svg/graphics/sedona.svg

<svg xmlns="http://www.w3.org/2000/svg" width="457" height="78" fill="none"><path fill="#fff" d="M298.4 1.7v74H318V39.2a93.41 93.41 0 0 0-1.2-14.7c.5.9.8 1.9 1.2 2.8.5 1 1 1.9 1.4 2.9.6 1.4 1.3 2.8 2 4.1.7 1.3 1.4 2.4 2.2 3.3l28.1 38.2h19.4v-74h-19.4v36.3c0 1.7 0 3.3.1 5 0 1.6.1 3.2.3 4.8 0 .8.1 1.6.2 2.4l.3 2.4c-.5-.9-.9-1.9-1.4-2.9l-1.4-3c-.6-1.2-1.3-2.4-2-3.6-.6-1.2-1.3-2.4-2-3.5l-27.9-38h-19.5ZM68.8 1.7v74h45.3V59.1H88.6V46.6h24V30.8h-24v-13h25.6V1.7H68.8ZM9.5 52.1s0-.1-.1-.2L0 66.7c3.5 3.2 7.5 5.8 12 7.7 4.5 1.8 9.1 2.8 13.7 3h1.4c1.2 0 2.3 0 3.4-.2 1.2-.1 2.4-.3 3.5-.5 1.4-.3 2.8-.6 4.2-1 1.4-.4 2.8-1 4.1-1.6 3.6-2 6.4-4.8 8.5-8.4 2.1-3.6 3.4-7.5 3.9-11.5v-1.3c.1-.5.1-.9.1-1.4v-.6c-.1-4-1.2-7.8-3.4-11.4-2.2-3.7-5.5-6.3-9.8-7.8-.9-.3-2.1-.6-3.5-.9-1.4-.4-2.8-.8-4.3-1.2-1.8-.5-3.5-1.1-5.1-1.6-1.6-.6-2.8-1.3-3.7-2a8 8 0 0 1-1.3-1.3c-.4-.5-.6-1-.8-1.5-.1-.2-.2-.5-.3-.7v-.7c0-1.6.8-3 2.3-4.3 1.6-1.4 3.2-2.2 5-2.4h.9c2.7 0 5.2.5 7.5 1.7s4.5 2.6 6.6 4.1l6.4-14.3c-2.4-1.4-4.9-2.7-7.7-3.8C41 1.8 38.2 1 35.4.5L32.1.2c-1-.1-2-.2-3-.2-4.2 0-8.4.9-12.3 2.7-3.8 1.8-7 4.7-9.5 8.8-.9 1.3-1.6 2.7-2.1 4.2-.6 1.5-1 3-1.2 4.6-.1.7-.2 1.3-.3 1.9v3.4c0 .9.1 1.8.3 2.7.2.8.5 1.6.7 2.4 1.3 3.8 3.6 6.8 6.9 8.9 3.3 2 6.9 3.5 10.7 4.4 0 0 .1 0 .2.1h.2l2.2.6c.8.2 1.6.4 2.4.7 2.1.8 4.1 2 5.8 3.4 1.9 1.4 2.8 3.1 2.8 5.2 0 .4 0 .8-.1 1.3 0 .5-.1 1-.3 1.5l-.2.5-.2.5c-.6 1.1-1.5 1.9-2.7 2.6-1.1.7-2.3 1.2-3.5 1.4-.3 0-.6.1-1 .2h-1.3c0-.1-.1-.1-.2-.1h-.3c0-.1-.1-.1-.2-.1-3.4-.1-6.5-1.2-9.1-3.1-2.6-2-5-4.2-7.1-6.5 0-.1-.1-.1-.2-.1Z"/><path fill="#fff" fill-rule="evenodd" d="M210.4 20.8c3.6-6.6 8.5-11.6 14.9-15.1A40.8 40.8 0 0 1 248 .6c1 .1 2 .2 2.9.2 2.9.4 5.7 1.1 8.5 2.1a36.1 36.1 0 0 1 20.9 18.2c3 5.9 4.5 12 4.5 18.5 0 .8 0 1.6-.1 2.4 0 .72-.08 1.36-.17 2.06l-.03.24c-.2 1.7-.5 3.3-.9 4.9-.4 1.6-.9 3.1-1.5 4.6-3.3 7.5-8.3 13.4-15.2 17.5-6.9 4.1-14.1 6.2-21.7 6.2-.5 0-1.1 0-1.6-.1h-1.5c-2.7-.2-5.3-.7-7.9-1.4-2.6-.7-5.1-1.7-7.4-2.9a37.5 37.5 0 0 1-15.3-14.5c-3.7-6.3-5.6-12.9-5.6-19.7 0-1 0-2 .1-3l.01-.14c.1-.96.2-2 .49-2.96.4-2 .9-4.1 1.6-6 .4-2.2 1.3-4.1 2.3-6ZM263.8 45l-.6 2.4c-1.4 4.1-3.8 7.4-7.1 10-3.2 2.4-6.9 3.6-11 3.6h-1.4l-1.4-.2c-.5 0-1-.1-1.5-.2l-1.4-.5c-4-1.2-7.2-3.6-9.5-7.2-2.2-3.7-3.5-7.6-3.7-11.7-.1-.3-.1-.6-.1-.8V38l.2-1.6c.09-.35.16-.69.22-1.01.09-.41.17-.8.28-1.19l.3-1.1.3-1.1v-.5l.2-.5c1.3-4.1 3.7-7.4 7-9.9s7-3.7 10.9-3.7c.8 0 1.5 0 2.3.2.8 0 1.5.1 2.3.3.63.16 1.2.37 1.79.6l.51.2c.8.3 1.5.6 2.3 1 2.8 1.7 5.1 4.1 6.7 7.2 1.6 3.1 2.6 6.3 3 9.6v1.4c.1.5.1.9.1 1.4 0 .5 0 1-.1 1.5 0 .5 0 1.1-.1 1.6-.08.76-.24 1.45-.4 2.19l-.1.41ZM181.1 68.8a32.6 32.6 0 0 1-11.8 5.1c-4.2.9-8.6 1.5-12.9 1.7-1.2.1-2.5.1-3.7.1h-23.8v-74H154a71.43 71.43 0 0 1 15.9 1.8c4.1.9 7.9 2.7 11.3 5.1 4.3 3 7.7 7 10.1 12 2.4 5 3.8 10.1 4.1 15.3.1.5.1.9.1 1.4v2.9c-.2 5.5-1.5 10.8-3.9 15.9s-6 9.4-10.5 12.7Zm-31.7-9.6c-.2-.1-.5-.1-.7-.1V18.5h7.5c2 .1 4 .3 6 .8s3.9 1.4 5.5 2.7c2.2 1.6 3.9 3.8 5.1 6.6 1.2 2.7 1.9 5.6 2.1 8.5.1.3.1.6.1.9v.9c0 3.3-.7 6.5-1.9 9.6-1.2 3-3 5.4-5.5 7.2-1.5 1-3.3 1.9-5.2 2.4-1.9.5-3.9.8-5.9 1-.62 0-1.32.08-2.1.17l-.3.03H151c-.2-.1-.5-.1-.8-.1h-.8ZM380.4 75.7l25.4-74H431l25.7 74h-20.2l-3.7-13.4h-28.6l-3.8 13.4h-20Zm28.2-27.6 7.5-24.5c.3-1.1.6-2.2 1.1-3.2.3-1.1.6-2.3.8-3.4.1-.1.1-.2.1-.3 0-.2 0-.3.1-.5 0-.5.1-.9.2-1.3.1-.5.2-.9.3-1.3 0 .33.07.66.15 1.05l.05.25c0 .4.1.8.3 1.3.17 1.1.4 2.12.66 3.19l.14.61 1.2 3.6 7.5 24.5h-20.1Z" clip-rule="evenodd"/></svg>

<svg width="457" height="78" viewBox="0 0 457 78" fill="none" xmlns="http://www.w3.org/2000/svg">
<path d="M298.4 1.7V75.7H318V39.2C318 36.8 317.9 34.3 317.7 31.8C317.5 29.3 317.2 26.9 316.8 24.5C317.3 25.4 317.6 26.4 318 27.3C318.5 28.3 319 29.2 319.4 30.2C320 31.6 320.7 33 321.4 34.3C322.1 35.6 322.8 36.7 323.6 37.6L351.7 75.8H371.1V1.8H351.7V38.1C351.7 39.8 351.7 41.4 351.8 43.1C351.8 44.7 351.9 46.3 352.1 47.9C352.1 48.7 352.2 49.5 352.3 50.3L352.6 52.7C352.1 51.8 351.7 50.8 351.2 49.8L349.8 46.8C349.2 45.6 348.5 44.4 347.8 43.2C347.2 42 346.5 40.8 345.8 39.7L317.9 1.7H298.4Z" fill="white"/>
<path d="M68.8 1.7V75.7H114.1V59.1H88.6V46.6H112.6V30.8H88.6V17.8H114.2V1.7H68.8Z" fill="white"/>
<path d="M9.5 52.1C9.5 52.1 9.5 52 9.4 51.9L0 66.7C3.5 69.9 7.5 72.5 12 74.4C16.5 76.2 21.1 77.2 25.7 77.4H27.1C28.3 77.4 29.4 77.4 30.5 77.2C31.7 77.1 32.9 76.9 34 76.7C35.4 76.4 36.8 76.1 38.2 75.7C39.6 75.3 41 74.7 42.3 74.1C45.9 72.1 48.7 69.3 50.8 65.7C52.9 62.1 54.2 58.2 54.7 54.2V52.9C54.8 52.4 54.8 52 54.8 51.5V50.9C54.7 46.9 53.6 43.1 51.4 39.5C49.2 35.8 45.9 33.2 41.6 31.7C40.7 31.4 39.5 31.1 38.1 30.8C36.7 30.4 35.3 30 33.8 29.6C32 29.1 30.3 28.5 28.7 28C27.1 27.4 25.9 26.7 25 26C24.5 25.6 24.1 25.2 23.7 24.7C23.3 24.2 23.1 23.7 22.9 23.2C22.8 23 22.7 22.7 22.6 22.5V21.8C22.6 20.2 23.4 18.8 24.9 17.5C26.5 16.1 28.1 15.3 29.9 15.1H30.8C33.5 15.1 36 15.6 38.3 16.8C40.6 18 42.8 19.4 44.9 20.9L51.3 6.60001C48.9 5.20001 46.4 3.9 43.6 2.8C41 1.8 38.2 1 35.4 0.5L32.1 0.199997C31.1 0.0999969 30.1 0 29.1 0C24.9 0 20.7 0.899997 16.8 2.7C13 4.5 9.8 7.4 7.3 11.5C6.4 12.8 5.7 14.2 5.2 15.7C4.6 17.2 4.2 18.7 4 20.3C3.9 21 3.8 21.6 3.7 22.2V25V25.6C3.7 26.5 3.8 27.4 4 28.3C4.2 29.1 4.5 29.9 4.7 30.7C6 34.5 8.3 37.5 11.6 39.6C14.9 41.6 18.5 43.1 22.3 44C22.3 44 22.4 44 22.5 44.1H22.7C23.4 44.3 24.2 44.5 24.9 44.7C25.7 44.9 26.5 45.1 27.3 45.4C29.4 46.2 31.4 47.4 33.1 48.8C35 50.2 35.9 51.9 35.9 54C35.9 54.4 35.9 54.8 35.8 55.3C35.8 55.8 35.7 56.3 35.5 56.8L35.3 57.3L35.1 57.8C34.5 58.9 33.6 59.7 32.4 60.4C31.3 61.1 30.1 61.6 28.9 61.8C28.6 61.8 28.3 61.9 27.9 62H26.6C26.6 61.9 26.5 61.9 26.4 61.9H26.1C26.1 61.8 26 61.8 25.9 61.8C22.5 61.7 19.4 60.6 16.8 58.7C14.2 56.7 11.8 54.5 9.7 52.2C9.7 52.1 9.6 52.1 9.5 52.1Z" fill="white"/>
<path fill-rule="evenodd" clip-rule="evenodd" d="M210.4 20.8C214 14.2 218.9 9.2 225.3 5.7C231.7 2.2 238.3 0.5 245.2 0.5C246.1 0.5 247.1 0.500006 248 0.600006C249 0.700006 250 0.800003 250.9 0.800003C253.8 1.2 256.6 1.90001 259.4 2.90001C262.3 3.90001 265 5.2 267.5 6.8C273 10.4 277.3 15.1 280.3 21.1C283.3 27 284.8 33.1 284.8 39.6C284.8 40.4 284.8 41.2 284.7 42C284.7 42.7192 284.619 43.3576 284.53 44.0604C284.52 44.1394 284.51 44.2192 284.5 44.3C284.3 46 284 47.6 283.6 49.2C283.2 50.8 282.7 52.3 282.1 53.8C278.8 61.3 273.8 67.2 266.9 71.3C260 75.4 252.8 77.5 245.2 77.5C244.7 77.5 244.1 77.5 243.6 77.4H242.1C239.4 77.2 236.8 76.7 234.2 76C231.6 75.3 229.1 74.3 226.8 73.1C220.3 69.7 215.2 64.9 211.5 58.6C207.8 52.3 205.9 45.7 205.9 38.9C205.9 37.9 205.9 36.9 206 35.9L206.014 35.7634C206.109 34.8005 206.214 33.7547 206.5 32.8C206.9 30.8 207.4 28.7 208.1 26.8C208.5 24.6 209.4 22.7 210.4 20.8ZM263.8 45L263.2 47.4C261.8 51.5 259.4 54.8 256.1 57.4C252.9 59.8 249.2 61 245.1 61H243.7L242.3 60.8C241.8 60.8 241.3 60.7 240.8 60.6L239.4 60.1C235.4 58.9 232.2 56.5 229.9 52.9C227.7 49.2 226.4 45.3 226.2 41.2C226.1 40.9 226.1 40.6 226.1 40.4V38L226.3 36.4C226.389 36.046 226.457 35.7115 226.524 35.388C226.608 34.9804 226.689 34.5902 226.8 34.2C226.9 33.85 227 33.475 227.1 33.1C227.2 32.725 227.3 32.35 227.4 32V31.5L227.6 31C228.9 26.9 231.3 23.6 234.6 21.1C237.9 18.6 241.6 17.4 245.5 17.4C246.3 17.4 247 17.4 247.8 17.6C248.6 17.6 249.3 17.7 250.1 17.9C250.726 18.0565 251.291 18.2742 251.89 18.5052C252.057 18.5694 252.226 18.6347 252.4 18.7C253.2 19 253.9 19.3 254.7 19.7C257.5 21.4 259.8 23.8 261.4 26.9C263 30 264 33.2 264.4 36.5V37.9C264.5 38.4 264.5 38.8 264.5 39.3C264.5 39.8 264.5 40.3 264.4 40.8C264.4 41.3 264.4 41.9 264.3 42.4C264.216 43.16 264.06 43.8487 263.893 44.5864C263.862 44.7224 263.831 44.86 263.8 45Z" fill="white"/>
<path fill-rule="evenodd" clip-rule="evenodd" d="M181.1 68.8C177.5 71.3 173.5 73 169.3 73.9C165.1 74.8 160.7 75.4 156.4 75.6C155.2 75.7 153.9 75.7 152.7 75.7H128.9V1.7H154C155.2 1.7 156.4 1.7 157.6 1.8C161.8 2 165.9 2.6 169.9 3.5C174 4.4 177.8 6.20001 181.2 8.60001C185.5 11.6 188.9 15.6 191.3 20.6C193.7 25.6 195.1 30.7 195.4 35.9C195.5 36.4 195.5 36.8 195.5 37.3V40.2C195.3 45.7 194 51 191.6 56.1C189.2 61.2 185.6 65.5 181.1 68.8ZM149.4 59.2C149.2 59.1 148.9 59.1 148.7 59.1V18.5H156.2C158.2 18.6 160.2 18.8 162.2 19.3C164.2 19.8 166.1 20.7 167.7 22C169.9 23.6 171.6 25.8 172.8 28.6C174 31.3 174.7 34.2 174.9 37.1C175 37.4 175 37.7 175 38V38.9C175 42.2 174.3 45.4 173.1 48.5C171.9 51.5 170.1 53.9 167.6 55.7C166.1 56.7 164.3 57.6 162.4 58.1C160.5 58.6 158.5 58.9 156.5 59.1C155.879 59.1 155.179 59.1788 154.4 59.2664C154.301 59.2775 154.201 59.2888 154.1 59.3H151C150.8 59.2 150.5 59.2 150.2 59.2H149.4Z" fill="white"/>
<path fill-rule="evenodd" clip-rule="evenodd" d="M380.4 75.7L405.8 1.7H431L456.7 75.7H436.5L432.8 62.3H404.2L400.4 75.7H380.4ZM408.6 48.1L416.1 23.6C416.4 22.5 416.7 21.4 417.2 20.4C417.5 19.3 417.8 18.1 418 17C418.1 16.9 418.1 16.8 418.1 16.7C418.1 16.5 418.1 16.4 418.2 16.2C418.2 15.7 418.3 15.3 418.4 14.9C418.5 14.4 418.6 14 418.7 13.6C418.7 13.9314 418.769 14.2628 418.849 14.651C418.866 14.7314 418.883 14.8142 418.9 14.9C418.9 15.3 419 15.7 419.2 16.2C419.368 17.293 419.607 18.3153 419.857 19.3857C419.904 19.5885 419.952 19.793 420 20L421.2 23.6L428.7 48.1H408.6Z" fill="white"/>
</svg>
